X:1
T:Title
%%score { ( 1 4 ) | ( 2 3 ) }
L:1/8
M:3/4
K:Db
V:1 treble nm="Grand Piano"
V:4 treble 
V:2 bass 
V:3 bass 
V:1
 z2 z[Q:1/4=94] F FF | [B,F]3 F FF | [A,-G]3 [A,-G] [A,-G][A,G] | [CG]4 [B,G]2 | [B,_F]2 =FF FF | %5
 [B,F]3 F FF | E2 z [D_F] FF | F4 G2 |[M:3/8] [DF]3 | [FA][FA][GB] |[M:3/4] [FA]4 [Fd]2 | G4 z2 | %12
 [EG]4 [Gc]2 |[M:3/8] [_FB]2 [=FA] | [FA][FA][GB] |[M:3/4] [FA]3 [Fd] [Fd][Fc] | e2 Bd cB | %17
[M:7/8] A- A3 e3 |[M:3/8] [Fd]3 |] %19
V:2
 z2 z A, DC | z2 z A, CC | z2 B,B, EC | [A,,A,]6 | z2 A,A, DC | z2 z A, DC | z2 .B,2 CB, | %7
 z2 z2 [CE]2 |[M:3/8] [D,,D,]3 | [D,D][D,D][D,D] |[M:3/4] [D,D]4 [D,A,]2 | %11
 [E,A,]3 [A,,A,] [A,,A,][G,,D,] | [A,,A,]4 [A,,A,]2 |[M:3/8] =G,2 A, | [D,D][D,D][D,D] | %15
[M:3/4] [D,D]3 [D,A,] [D,A,][D,A,] | [G,G]2- [G,DG][=G,B,_F] [G,CF][G,DF] | %17
[M:7/8] [A,DF]- [A,DF]3 [A,G]3 |[M:3/8][K:bass] [D,A,]3 |] %19
V:3
 x6 | [D,,D,]6 | A,,6 | x6 | [D,,D,]6 | [D,,D,]6 | G,,3 [=G,,=G,]3 | [A,,A,]6 |[M:3/8] x3 | x3 | %10
[M:3/4] x6 | x6 | x6 |[M:3/8] D,3 | x3 |[M:3/4] x6 | B,2 z2 z2 |[M:7/8] x7 |[M:3/8][K:bass] x3 |] %19
V:4
 x6 | x6 | C2 z2 z2 | x6 | x6 | x6 | [G,G]4 z2 | x6 |[M:3/8] x3 | x3 |[M:3/4] x6 | %11
 d2 c[CE] [CE][DF] | x6 |[M:3/8] x3 | x3 |[M:3/4] x6 | x6 |[M:7/8] x7 |[M:3/8] x3 |] %19

